packages/foundations/assets/icons/functional/images/arrows/arrow_up_right_24.svg

<svg xmlns="http://www.w3.org/2000/svg" width="24" height="24" fill="none"><g clip-path="url(#a)"><path fill="#1A1C1F" fill-rule="evenodd" d="M7.031 18a.95.95 0 0 0 .657-.281L16 9.406V15c0 .594.469 1.031 1 1.031s1-.468 1-1.031V6.906C18 6.375 17.531 6 17 6H9c-.594 0-1 .469-1 1 0 .5.469 1 1 1h5.594l-8.375 8.375c-.157.156-.219.406-.219.594C6 17.562 6.438 18 7.031 18" clip-rule="evenodd"/></g><defs><clipPath id="a"><path fill="#fff" d="M0 0h24v24H0z"/></clipPath></defs></svg>

<svg width="24" height="24" viewBox="0 0 24 24" fill="none" xmlns="http://www.w3.org/2000/svg">
<g clip-path="url(#clip0_77_522)">
<path fill-rule="evenodd" clip-rule="evenodd" d="M7.031 18C7.27816 17.9951 7.51373 17.8943 7.688 17.719L16 9.406V15C16 15.594 16.469 16.031 17 16.031C17.531 16.031 18 15.563 18 15V6.906C18 6.375 17.531 6 17 6H9C8.406 6 8 6.469 8 7C8 7.5 8.469 8 9 8H14.594L6.219 16.375C6.062 16.531 6 16.781 6 16.969C6 17.562 6.438 18 7.031 18Z" fill="#1A1C1F"/>
</g>
<defs>
<clipPath id="clip0_77_522">
<rect width="24" height="24" fill="white"/>
</clipPath>
</defs>
</svg>
